X:1
T:The Kielder Hunt
M:2/2
L:1/8
K:C
C-D| FF GA dd A3/2 c/2| dd dd A2| AA| DD FG Ac A A/2A/2| GF D3/2 D/2|\
 D2 E/2E/2| FE FG A/2A/2 GA c| d/2d/2 dd d| A2 A2| DD F/2F/2 GA cA A|\
 GF D3/2 D/2 D2 CD| F6 FA| c6 cc| d/2 d3/2 cd AG FE| D6||
